X:2825
T:In the Promised Land
O:england
M:C|
L:1/8
R:reel
K:DDor
cd d/2d/2d cA A/2A/2A|dAcA GAce|f2ed cA A/2A/2A|1dAcA G3c:|2dAcA G3e|
:fdad fdad|ecgc ecge|fdad fdad|1edcA G3e:|2edcA G3c||


